X:247
T: Des Bauern Gabe (3-50), S. 145
N: P1022
O: Lothringen
S: PINCK, Louis: Verklingende Weisen, Bd3, Metz 1933]
R: Heirat?, Mitgift?]
M: 4/4
L: 1/16
K: F
C4 | F4F4F2F2G4 | A3AA2A2A4F2
F2 | G6A2G4F2D2 | C4c4c4
c2c2 | c4A3Bc4z4 |
F2F2F2F2B2B2B2B2 | d4d4c4z4 |
B2B2B2B2A2A2A2A2 | c4c4F4

